images/categories-tools.svg

<svg fill="none" height="76" viewBox="0 0 76 76" width="76" xmlns="http://www.w3.org/2000/svg"><circle cx="38" cy="38" fill="#e4e4e4" r="38"/><g fill="#000"><path d="m36.6098 27.8461c.1635.3924.6263.5852 1.0195.4219.3934-.1634.5857-.6264.4227-1.0203-.1626-.3927-.6278-.5853-1.0203-.4219-.3945.1641-.5835.626-.4219 1.0203z"/><path d="m53.4815 46.3539h-.0257v-.528c0-3.7523-3.0554-6.8051-6.811-6.8051s-6.811 3.0528-6.811 6.8051v5.3689c0 2.8908-2.3544 5.2427-5.2485 5.2427-2.1179 0-4.0068-1.2738-4.8234-3.1739.8279-.431 1.3949-1.2965 1.3949-2.2923v-1.2086c1.3795-.8672 2.2987-2.4011 2.2987-4.1463v-3.306c2.8584-.3823 4.2886-2.7627 4.353-2.8725.1924-.3283.1203-.7474-.1707-.9925l-3.4333-2.8923 10.3286-3.5119c1.8789-.639 3.9907-.1351 5.4247 1.2217.7982.7559 2.0145 1.6248 3.6263 1.9835.655.1459 2.2953.5253 2.2953-.6124v-14.0748c0-.8667-.9566-.8046-1.5567-.7407-1.5693.1655-3.0179.8595-4.319 2.0693-1.4445 1.3452-3.561 1.8317-5.4346 1.178l-12.0317-4.2017c-1.2233-.5586-2.5749-.8641-3.9815-.8641-5.1972 0-9.5559 4.3426-9.5559 9.5473 0 1.1026.1887 2.1618.5344 3.1479.01.036.0222.0711.037.1049.7556 2.0767 2.213 3.8193 4.0843 4.9407v9.8756c0 1.7591.9338 3.304 2.3316 4.1673v1.1876c0 1.2928.9552 2.3667 2.1974 2.5542.9698 2.6616 3.523 4.4745 6.4007 4.4745 3.7556 0 6.811-3.0528 6.811-6.8052v-5.3689c0-2.8907 2.3545-5.2426 5.2485-5.2426 2.8941 0 5.2485 2.3519 5.2485 5.2426v.528h-.0257c-1.6423 0-2.9785 1.3352-2.9785 2.9764v3.2024c0 .4315.3498.7813.7813.7813h.7725v1.3306c0 .4315.3497.7813.7812.7813s.7813-.3498.7813-.7813v-1.3306h1.2693v1.3306c0 .4315.3498.7813.7813.7813s.7812-.3498.7812-.7813v-1.3306h.8415c.4315 0 .7813-.3498.7813-.7813v-3.2024c-.0001-1.6412-1.3363-2.9764-2.9786-2.9764zm-20.026-5.6243v-3.7644l2.6156 2.2034c-.4631.5363-1.3356 1.322-2.6156 1.561zm16.9958-9.0949v-8.0902c.5559-.4109 1.0284-.9149 1.6117-1.2922.6812-.4406 1.449-.7452 2.2539-.8589v12.3998c-.824-.1219-1.612-.4398-2.3085-.8932-.5664-.3687-1.0223-.858-1.5571-1.2653zm-28.9666-.3676h3.0294c.4314 0 .7812-.3498.7812-.7812 0-.4315-.3498-.7813-.7812-.7813h-3.655c-.125-.4444-.2122-.9042-.2583-1.376h3.8361c.4315 0 .7812-.3498.7812-.7813 0-.4314-.3497-.7812-.7812-.7812h-3.8361c.0458-.4688.1322-.9257.256-1.3673h3.5802c.4314 0 .7812-.3498.7812-.7813s-.3498-.7812-.7812-.7812h-2.9568c1.3397-2.5389 4.0085-4.2738 7.0757-4.2738 3.2036 0 6.1615 1.9747 7.3879 4.933.1446.3488.5128.5373.8696.468.0511-.0098.1018-.025.1516-.0457.3986-.1652.5877-.6223.4226-1.0208-.3099-.7476-.716-1.458-1.203-2.1043l7.8697 2.7482c1.5954.5568 3.307.4947 4.8345-.1207v6.3125c-1.5293-.6378-3.2504-.7179-4.8587-.171l-7.7748 2.6436c.4497-.6123.8281-1.2796 1.1212-1.9806.1664-.3981-.0213-.8557-.4195-1.0221-.392-.1639-.858.0257-1.0226.4193-1.1915 2.849-4.0187 4.7986-7.1036 4.9052-3.0339.1026-5.9263-1.5776-7.3461-4.26zm3.7335 5.2267c2.1398.795 4.5342.7967 6.6748.0023v5.0862 4.034c0 1.3201-.7722 2.4634-1.8892 3.003-.8064.3899-1.7576.433-2.5982.1265-1.2754-.4691-2.1874-1.6949-2.1874-3.1295zm2.3316 14.4775v-.5617c.6702.1396 1.3751.1376 2.0445-.0069v.5686c0 .563-.4584 1.0209-1.0219 1.0209-.5639-.0001-1.0226-.4581-1.0226-1.0209zm27.3477.7802h-4.4459v-2.4212c0-.7796.6352-1.4139 1.416-1.4139h1.6139c.7808 0 1.416.6343 1.416 1.4139z"/></g></svg>

<svg width="76" height="76" viewBox="0 0 76 76" fill="none" xmlns="http://www.w3.org/2000/svg">
<circle cx="38" cy="38" r="38" fill="#E4E4E4"/>
<path d="M36.6098 27.8461C36.7733 28.2385 37.2361 28.4313 37.6293 28.268C38.0227 28.1046 38.215 27.6416 38.052 27.2477C37.8894 26.855 37.4242 26.6624 37.0317 26.8258C36.6372 26.9899 36.4482 27.4518 36.6098 27.8461Z" fill="black"/>
<path d="M53.4815 46.3539H53.4558V45.8259C53.4558 42.0736 50.4004 39.0208 46.6448 39.0208C42.8892 39.0208 39.8338 42.0736 39.8338 45.8259V51.1948C39.8338 54.0856 37.4794 56.4375 34.5853 56.4375C32.4674 56.4375 30.5785 55.1637 29.7619 53.2636C30.5898 52.8326 31.1568 51.9671 31.1568 50.9713V49.7627C32.5363 48.8955 33.4555 47.3616 33.4555 45.6164V42.3104C36.3139 41.9281 37.7441 39.5477 37.8085 39.4379C38.0009 39.1096 37.9288 38.6905 37.6378 38.4454L34.2045 35.5531L44.5331 32.0412C46.412 31.4022 48.5238 31.9061 49.9578 33.2629C50.756 34.0188 51.9723 34.8877 53.5841 35.2464C54.2391 35.3923 55.8794 35.7717 55.8794 34.634V20.5592C55.8794 19.6925 54.9228 19.7546 54.3227 19.8185C52.7534 19.984 51.3048 20.678 50.0037 21.8878C48.5592 23.233 46.4427 23.7195 44.5691 23.0658L32.5374 18.8641C31.3141 18.3055 29.9625 18 28.5559 18C23.3587 18 19 22.3426 19 27.5473C19 28.6499 19.1887 29.7091 19.5344 30.6952C19.5444 30.7312 19.5566 30.7663 19.5714 30.8001C20.327 32.8768 21.7844 34.6194 23.6557 35.7408V45.6164C23.6557 47.3755 24.5895 48.9204 25.9873 49.7837V50.9713C25.9873 52.2641 26.9425 53.338 28.1847 53.5255C29.1545 56.1871 31.7077 58 34.5854 58C38.341 58 41.3964 54.9472 41.3964 51.1948V45.8259C41.3964 42.9352 43.7509 40.5833 46.6449 40.5833C49.539 40.5833 51.8934 42.9352 51.8934 45.8259V46.3539H51.8677C50.2254 46.3539 48.8892 47.6891 48.8892 49.3303V52.5327C48.8892 52.9642 49.239 53.314 49.6705 53.314H50.443V54.6446C50.443 55.0761 50.7927 55.4259 51.2242 55.4259C51.6557 55.4259 52.0055 55.0761 52.0055 54.6446V53.314H53.2748V54.6446C53.2748 55.0761 53.6246 55.4259 54.0561 55.4259C54.4876 55.4259 54.8373 55.0761 54.8373 54.6446V53.314H55.6788C56.1103 53.314 56.4601 52.9642 56.4601 52.5327V49.3303C56.46 47.6891 55.1238 46.3539 53.4815 46.3539ZM33.4555 40.7296V36.9652L36.0711 39.1686C35.608 39.7049 34.7355 40.4906 33.4555 40.7296ZM50.4513 31.6347V23.5445C51.0072 23.1336 51.4797 22.6296 52.063 22.2523C52.7442 21.8117 53.512 21.5071 54.3169 21.3934V33.7932C53.4929 33.6713 52.7049 33.3534 52.0084 32.9C51.442 32.5313 50.9861 32.042 50.4513 31.6347ZM21.4847 31.2671H24.5141C24.9455 31.2671 25.2953 30.9173 25.2953 30.4859C25.2953 30.0544 24.9455 29.7046 24.5141 29.7046H20.8591C20.7341 29.2602 20.6469 28.8004 20.6008 28.3286H24.4369C24.8684 28.3286 25.2181 27.9788 25.2181 27.5473C25.2181 27.1159 24.8684 26.7661 24.4369 26.7661H20.6008C20.6466 26.2973 20.733 25.8404 20.8568 25.3988H24.437C24.8684 25.3988 25.2182 25.049 25.2182 24.6175C25.2182 24.186 24.8684 23.8363 24.437 23.8363H21.4802C22.8199 21.2974 25.4887 19.5625 28.5559 19.5625C31.7595 19.5625 34.7174 21.5372 35.9438 24.4955C36.0884 24.8443 36.4566 25.0328 36.8134 24.9635C36.8645 24.9537 36.9152 24.9385 36.965 24.9178C37.3636 24.7526 37.5527 24.2955 37.3876 23.897C37.0777 23.1494 36.6716 22.439 36.1846 21.7927L44.0543 24.5409C45.6497 25.0977 47.3613 25.0356 48.8888 24.4202V30.7327C47.3595 30.0949 45.6384 30.0148 44.0301 30.5617L36.2553 33.2053C36.705 32.593 37.0834 31.9257 37.3765 31.2247C37.5429 30.8266 37.3552 30.369 36.957 30.2026C36.565 30.0387 36.099 30.2283 35.9344 30.6219C34.7429 33.4709 31.9157 35.4205 28.8308 35.5271C25.7969 35.6297 22.9045 33.9495 21.4847 31.2671ZM25.2182 36.4938C27.358 37.2888 29.7524 37.2905 31.893 36.4961V41.5823V45.6163C31.893 46.9364 31.1208 48.0797 30.0038 48.6193C29.1974 49.0092 28.2462 49.0523 27.4056 48.7458C26.1302 48.2767 25.2182 47.0509 25.2182 45.6163V36.4938ZM27.5498 50.9713V50.4096C28.22 50.5492 28.9249 50.5472 29.5943 50.4027V50.9713C29.5943 51.5343 29.1359 51.9922 28.5724 51.9922C28.0085 51.9921 27.5498 51.5341 27.5498 50.9713ZM54.8975 51.7515H50.4516V49.3303C50.4516 48.5507 51.0868 47.9164 51.8676 47.9164H53.4815C54.2623 47.9164 54.8975 48.5507 54.8975 49.3303V51.7515Z" fill="black"/>
</svg>
